X: 1726
T: Morning Star
B: australian traditional tunes wiki
M:4/4
L:1/8
R: Reel
Q: 1/4=100
K:D
V:1 
e|"D"f3e fdBc|d3e f2 b2|"D"f2fe fdBc|dfec d3e|
"D"f3e fdBc|d3e f2 b2|"D"f2 fe fdBc|dfedd4||
|"D"FABc d2 cd|"A"ecAc B2AF-|"D"FABc d2 cd|"A"ecAc B4|
"D"FABc d2 cd|"A"ecAc B3A|"D"f2 fe fdBc|dfed d4|]
% abcbook-tune_id 6342d53a3747377b147b6bb5


% abcbook-boost 0
% abcbook-tablature 
% abcbook-transpose 
% abcbook-lastupdated 1665324380295
% abcbook-soundfonts 
% abcbook-repeats 1
% NFF Book 2018

